X: 452
M: C
L: 1/8
K: Amix
V: 1
e |\
(c/d/e) (f/g/a) Te2dc | dBgB aBgB |\
(c/d/e) (f/g/a) Te2dc | dBgB aAA :|
|: e |\
V: 2 clef=bass middle=d
z |\
a2a2 a2a2 | g2g2 g2g2 |\
a2a2 a2a2 | e2e2 A2A :|
|: z |\
a2a2 a2a2 | e2e2 e2e2 |\
a2a2 a2a2 | e2e2 A2A :|

